X:235
T:Fisherman's Lilt, The
T:The Lilting Fisherman
T:Joe Derrane's
S:Radio Scotland, Travelling Folk
Z:Nigel Gatherer
M:6/8
R:Jig
L:1/8
K:G
B/c/|dBG GBd|gfg ege|dBG GFG|AFD cBA|
dBG GBd|gfg ege|dBG FGA|BGG G2:|
K:D
F/G/|ABA AFD|fgf f2 e|dce dcB|AFF F2 F|
AFA AFA|BGB B2 d|cde ABc|d3 d2:|
<end>
<start>
